MODULE MainModule
    
    PROC Wait()
        WaitTime (2);
    ENDPROC
    
	PROC Close()
        Reset doGripOpen;
		Set doGripClose;
		WaitTime 2;
		Reset doGripClose;
    ENDPROC
	PROC Open()
        Reset doGripClose;
		Set doGripOpen;
		WaitTime 2;
		Reset doGripOpen;
    ENDPROC
    
    PROC Drop1()
        MoveJ [[245, -100, 300],[0.0121433,0.70561,0.708407,0.0112634],[-1,-1,-4,0],[9E+09,9E+09,9E+09,9E+09,9E+09,9E+09]], v1000, z50, tool0;
        MoveJ [[245, -100, 190],[0.0121433,0.70561,0.708407,0.0112634],[-1,-1,-4,0],[9E+09,9E+09,9E+09,9E+09,9E+09,9E+09]], v1000, z50, tool0;
        Wait;
        Open;
        MoveJ [[245, -100, 300],[0.0121433,0.70561,0.708407,0.0112634],[-1,-1,-4,0],[9E+09,9E+09,9E+09,9E+09,9E+09,9E+09]], v1000, z50, tool0; 
    ENDPROC
    PROC Drop11()
        MoveJ [[245, -100, 300],[0.0121433,0.70561,0.708407,0.0112634],[-1,-1,-4,0],[9E+09,9E+09,9E+09,9E+09,9E+09,9E+09]], v1000, z50, tool0;
        MoveJ [[245, -100, 202],[0.0121433,0.70561,0.708407,0.0112634],[-1,-1,-4,0],[9E+09,9E+09,9E+09,9E+09,9E+09,9E+09]], v1000, z50, tool0;
        Wait;
        Open;
        MoveJ [[245, -100, 300],[0.0121433,0.70561,0.708407,0.0112634],[-1,-1,-4,0],[9E+09,9E+09,9E+09,9E+09,9E+09,9E+09]], v1000, z50, tool0; 
    ENDPROC
    PROC Drop111()
        MoveJ [[245, -100, 300],[0.0121433,0.70561,0.708407,0.0112634],[-1,-1,-4,0],[9E+09,9E+09,9E+09,9E+09,9E+09,9E+09]], v1000, z50, tool0;
        MoveJ [[245, -100, 214],[0.0121433,0.70561,0.708407,0.0112634],[-1,-1,-4,0],[9E+09,9E+09,9E+09,9E+09,9E+09,9E+09]], v1000, z50, tool0;
        Wait;
        Open;
        MoveJ [[245, -100, 300],[0.0121433,0.70561,0.708407,0.0112634],[-1,-1,-4,0],[9E+09,9E+09,9E+09,9E+09,9E+09,9E+09]], v1000, z50, tool0; 
    ENDPROC
    
    PROC Drop2()
        MoveJ [[245, 000, 300],[0.0121433,0.70561,0.708407,0.0112634],[-1,-1,-4,0],[9E+09,9E+09,9E+09,9E+09,9E+09,9E+09]], v1000, z50, tool0;
        MoveJ [[245, 000, 190],[0.0121433,0.70561,0.708407,0.0112634],[-1,-1,-4,0],[9E+09,9E+09,9E+09,9E+09,9E+09,9E+09]], v1000, z50, tool0;
        Wait;
        Open;
        MoveJ [[245, 000, 300],[0.0121433,0.70561,0.708407,0.0112634],[-1,-1,-4,0],[9E+09,9E+09,9E+09,9E+09,9E+09,9E+09]], v1000, z50, tool0; 
    ENDPROC
    PROC Drop22()
        MoveJ [[245, 000, 300],[0.0121433,0.70561,0.708407,0.0112634],[-1,-1,-4,0],[9E+09,9E+09,9E+09,9E+09,9E+09,9E+09]], v1000, z50, tool0;
        MoveJ [[245, 000, 202],[0.0121433,0.70561,0.708407,0.0112634],[-1,-1,-4,0],[9E+09,9E+09,9E+09,9E+09,9E+09,9E+09]], v1000, z50, tool0;
        Wait;
        Open;
        MoveJ [[245, 000, 300],[0.0121433,0.70561,0.708407,0.0112634],[-1,-1,-4,0],[9E+09,9E+09,9E+09,9E+09,9E+09,9E+09]], v1000, z50, tool0; 
    ENDPROC
    PROC Drop222()
        MoveJ [[245, 000, 300],[0.0121433,0.70561,0.708407,0.0112634],[-1,-1,-4,0],[9E+09,9E+09,9E+09,9E+09,9E+09,9E+09]], v1000, z50, tool0;
        MoveJ [[245, 000, 214],[0.0121433,0.70561,0.708407,0.0112634],[-1,-1,-4,0],[9E+09,9E+09,9E+09,9E+09,9E+09,9E+09]], v1000, z50, tool0;
        Wait;
        Open;
        MoveJ [[245, 000, 300],[0.0121433,0.70561,0.708407,0.0112634],[-1,-1,-4,0],[9E+09,9E+09,9E+09,9E+09,9E+09,9E+09]], v1000, z50, tool0; 
    ENDPROC
    
    PROC Drop3()
        MoveJ [[245, 100, 300],[0.0121433,0.70561,0.708407,0.0112634],[-1,-1,-4,0],[9E+09,9E+09,9E+09,9E+09,9E+09,9E+09]], v1000, z50, tool0;
        MoveJ [[245, 100, 190],[0.0121433,0.70561,0.708407,0.0112634],[-1,-1,-4,0],[9E+09,9E+09,9E+09,9E+09,9E+09,9E+09]], v1000, z50, tool0;
        Wait;
        Open;
        MoveJ [[245, 100, 300],[0.0121433,0.70561,0.708407,0.0112634],[-1,-1,-4,0],[9E+09,9E+09,9E+09,9E+09,9E+09,9E+09]], v1000, z50, tool0; 
    ENDPROC
    PROC Drop33()
        MoveJ [[245, 100, 300],[0.0121433,0.70561,0.708407,0.0112634],[-1,-1,-4,0],[9E+09,9E+09,9E+09,9E+09,9E+09,9E+09]], v1000, z50, tool0;
        MoveJ [[245, 100, 202],[0.0121433,0.70561,0.708407,0.0112634],[-1,-1,-4,0],[9E+09,9E+09,9E+09,9E+09,9E+09,9E+09]], v1000, z50, tool0;
        Wait;
        Open;
        MoveJ [[245, 100, 300],[0.0121433,0.70561,0.708407,0.0112634],[-1,-1,-4,0],[9E+09,9E+09,9E+09,9E+09,9E+09,9E+09]], v1000, z50, tool0; 
    ENDPROC
    PROC Drop4()
        MoveJ [[400, 185, 300],[0.0121433,0.70561,0.708407,0.0112634],[-1,-1,-4,0],[9E+09,9E+09,9E+09,9E+09,9E+09,9E+09]], v1000, z50, tool0;
        MoveJ [[400, 185, 190],[0.0121433,0.70561,0.708407,0.0112634],[-1,-1,-4,0],[9E+09,9E+09,9E+09,9E+09,9E+09,9E+09]], v1000, z50, tool0;
        Wait;
        Open;
        MoveJ [[400, 185, 300],[0.0121433,0.70561,0.708407,0.0112634],[-1,-1,-4,0],[9E+09,9E+09,9E+09,9E+09,9E+09,9E+09]], v1000, z50, tool0; 
    ENDPROC
    
    PROC Blk1()
        MoveJ [[312, -103, 300],[0.012145,0.705599,0.708418,0.0112633],[-1,0,-4,0],[9E+09,9E+09,9E+09,9E+09,9E+09,9E+09]], v1000, z50, tool0;
        MoveJ [[312, -103, 190],[0.0121448,0.705599,0.708418,0.0112634],[-1,0,-4,0],[9E+09,9E+09,9E+09,9E+09,9E+09,9E+09]], v1000, z50, tool0;
        Wait;
        Close;
        MoveJ [[312, -103, 300],[0.012145,0.705599,0.708418,0.0112633],[-1,0,-4,0],[9E+09,9E+09,9E+09,9E+09,9E+09,9E+09]], v1000, z50, tool0;
    ENDPROC
    
    PROC Blk2()
        MoveJ [[312, -23,  300],[0.0121486,0.705601,0.708415,0.0112673],[-1,0,-4,0],[9E+09,9E+09,9E+09,9E+09,9E+09,9E+09]], v1000, z50, tool0;
		MoveJ [[312, -23,  190],[0.0121486,0.705601,0.708415,0.0112673],[-1,0,-4,0],[9E+09,9E+09,9E+09,9E+09,9E+09,9E+09]], v1000, z50, tool0;
        Wait;
        Close;
        MoveJ [[312, -23, 300],[0.0121486,0.705601,0.708415,0.0112673],[-1,0,-4,0],[9E+09,9E+09,9E+09,9E+09,9E+09,9E+09]], v1000, z50, tool0;
    ENDPROC

    PROC Blk3()
        MoveJ [[312, 58, 300],[0.0121518,0.705603,0.708413,0.011273],[0,-1,-3,0],[9E+09,9E+09,9E+09,9E+09,9E+09,9E+09]], v1000, z50, tool0;
		MoveJ [[312, 58, 190],[0.0121518,0.705603,0.708413,0.011273],[0,-1,-3,0],[9E+09,9E+09,9E+09,9E+09,9E+09,9E+09]], v1000, z50, tool0;
        Wait;
        Close;
        MoveJ [[312, 58, 300],[0.0121518,0.705603,0.708413,0.011273],[0,-1,-3,0],[9E+09,9E+09,9E+09,9E+09,9E+09,9E+09]], v1000, z50, tool0;
    ENDPROC
    
    PROC Blk4()
        MoveJ [[390, -103, 300],[0.0121495,0.705599,0.708417,0.011267],[-1,0,-4,0],[9E+09,9E+09,9E+09,9E+09,9E+09,9E+09]], v1000, z50, tool0;
		MoveJ [[390, -103, 190],[0.0121495,0.705599,0.708417,0.011267],[-1,0,-4,0],[9E+09,9E+09,9E+09,9E+09,9E+09,9E+09]], v1000, z50, tool0;
        Wait;
        Close;
        MoveJ [[390, -103, 300],[0.0121495,0.705599,0.708417,0.011267],[-1,0,-4,0],[9E+09,9E+09,9E+09,9E+09,9E+09,9E+09]], v1000, z50, tool0;
    ENDPROC
    
    PROC Blk5()
        MoveJ [[390, -23,  300],[0.0121514,0.705603,0.708414,0.0112673],[-1,0,-4,0],[9E+09,9E+09,9E+09,9E+09,9E+09,9E+09]], v1000, z50, tool0;
		MoveJ [[390, -23,  190],[0.0121514,0.705603,0.708414,0.0112673],[-1,0,-4,0],[9E+09,9E+09,9E+09,9E+09,9E+09,9E+09]], v1000, z50, tool0;
        Wait;
        Close;
        MoveJ [[390, -23,  300],[0.0121514,0.705603,0.708414,0.0112673],[-1,0,-4,0],[9E+09,9E+09,9E+09,9E+09,9E+09,9E+09]], v1000, z50, tool0;
    ENDPROC
    
    PROC Blk6()
        MoveJ [[390, 58,   300],[0.0121549,0.705601,0.708415,0.0112726],[0,-1,-3,0],[9E+09,9E+09,9E+09,9E+09,9E+09,9E+09]], v1000, z50, tool0;
		MoveJ [[390, 58,   190],[0.0121549,0.705601,0.708415,0.0112726],[0,-1,-3,0],[9E+09,9E+09,9E+09,9E+09,9E+09,9E+09]], v1000, z50, tool0;
        Wait;
        Close;
        MoveJ [[390, 58,   300],[0.0121549,0.705601,0.708415,0.0112726],[0,-1,-3,0],[9E+09,9E+09,9E+09,9E+09,9E+09,9E+09]], v1000, z50, tool0;
    ENDPROC
    
    PROC Blk7()
        MoveJ [[472, -103, 300],[0.0121518,0.705602,0.708414,0.0112647],[-1,0,-4,0],[9E+09,9E+09,9E+09,9E+09,9E+09,9E+09]], v1000, z50, tool0;
		MoveJ [[472, -103, 190],[0.0121518,0.705602,0.708414,0.0112647],[-1,0,-4,0],[9E+09,9E+09,9E+09,9E+09,9E+09,9E+09]], v1000, z50, tool0;
        Wait;
        Close;
        MoveJ [[472,-103, 300],[0.0121518,0.705602,0.708414,0.0112647],[-1,0,-4,0],[9E+09,9E+09,9E+09,9E+09,9E+09,9E+09]], v1000, z50, tool0;
    ENDPROC
    
    PROC Blk8()
        MoveJ [[472, -23,  300],[0.0121585,0.705606,0.708411,0.0112768],[-1,0,-4,0],[9E+09,9E+09,9E+09,9E+09,9E+09,9E+09]], v1000, z50, tool0;
		MoveJ [[472, -23,  190],[0.0121585,0.705606,0.708411,0.0112768],[-1,0,-4,0],[9E+09,9E+09,9E+09,9E+09,9E+09,9E+09]], v1000, z50, tool0;
        Wait;
        Close;
        MoveJ [[472,-23, 300],[0.0121585,0.705606,0.708411,0.0112768],[-1,0,-4,0],[9E+09,9E+09,9E+09,9E+09,9E+09,9E+09]], v1000, z50, tool0;
    ENDPROC
    
    PROC Blk9()
        MoveJ [[472, 58, 300],[0.0121476,0.705604,0.708413,0.0112577],[0,-1,-3,0],[9E+09,9E+09,9E+09,9E+09,9E+09,9E+09]], v1000, z50, tool0;
        MoveJ [[472, 58, 190],[0.0121476,0.705604,0.708413,0.0112577],[0,-1,-3,0],[9E+09,9E+09,9E+09,9E+09,9E+09,9E+09]], v1000, z50, tool0;
        Wait;
        Close;
        MoveJ [[472, 58, 300],[0.0121476,0.705604,0.708413,0.0112577],[0,-1,-3,0],[9E+09,9E+09,9E+09,9E+09,9E+09,9E+09]], v1000, z50, tool0;
    ENDPROC
    
    PROC main()
        
        Open;
        
        Blk1;
        Drop1;
        Blk2;
        Drop2;
        Blk3;
        Drop3; 
        Blk4;
        Drop22; 
        Blk5;
        Drop222; 
        Blk6;
        Drop11; 
        Blk7;
        Drop4; 
        Blk8;
        Drop111; 
        Blk9;
        Drop33; 
        
        
	ENDPROC
ENDMODULE