MODULE MainModule
	PROC main()
		
         IF DI10_10 = 1 THEN
            MoveJ [[312, -103, 300],[0.012145,0.705599,0.708418,0.0112633],[-1,0,-4,0],[9E+09,9E+09,9E+09,9E+09,9E+09,9E+09]], v1000, z50, tool0;
            MoveJ [[312, -103, 190],[0.0121448,0.705599,0.708418,0.0112634],[-1,0,-4,0],[9E+09,9E+09,9E+09,9E+09,9E+09,9E+09]], v1000, z50, tool0;

            MoveJ [[312, -103, 300],[0.012145,0.705599,0.708418,0.0112633],[-1,0,-4,0],[9E+09,9E+09,9E+09,9E+09,9E+09,9E+09]], v1000, z50, tool0;
		ENDIF    
        
        IF DI10_11 = 1 THEN
            MoveJ [[312, -23,  300],[0.0121486,0.705601,0.708415,0.0112673],[-1,0,-4,0],[9E+09,9E+09,9E+09,9E+09,9E+09,9E+09]], v1000, z50, tool0;
    		MoveJ [[312, -23,  190],[0.0121486,0.705601,0.708415,0.0112673],[-1,0,-4,0],[9E+09,9E+09,9E+09,9E+09,9E+09,9E+09]], v1000, z50, tool0;

            MoveJ [[312, -23, 300],[0.0121486,0.705601,0.708415,0.0112673],[-1,0,-4,0],[9E+09,9E+09,9E+09,9E+09,9E+09,9E+09]], v1000, z50, tool0;
        ENDIF
        
        IF DI10_12 = 1 THEN
            MoveJ [[312, 58, 300],[0.0121518,0.705603,0.708413,0.011273],[0,-1,-3,0],[9E+09,9E+09,9E+09,9E+09,9E+09,9E+09]], v1000, z50, tool0;
    		MoveJ [[312, 58, 190],[0.0121518,0.705603,0.708413,0.011273],[0,-1,-3,0],[9E+09,9E+09,9E+09,9E+09,9E+09,9E+09]], v1000, z50, tool0;

            MoveJ [[312, 58, 300],[0.0121518,0.705603,0.708413,0.011273],[0,-1,-3,0],[9E+09,9E+09,9E+09,9E+09,9E+09,9E+09]], v1000, z50, tool0;
        ENDIF
            
        IF DI10_13 = 1 THEN
            MoveJ [[390, -103, 300],[0.0121495,0.705599,0.708417,0.011267],[-1,0,-4,0],[9E+09,9E+09,9E+09,9E+09,9E+09,9E+09]], v1000, z50, tool0;
    		MoveJ [[390, -103, 190],[0.0121495,0.705599,0.708417,0.011267],[-1,0,-4,0],[9E+09,9E+09,9E+09,9E+09,9E+09,9E+09]], v1000, z50, tool0;

            MoveJ [[390, -103, 300],[0.0121495,0.705599,0.708417,0.011267],[-1,0,-4,0],[9E+09,9E+09,9E+09,9E+09,9E+09,9E+09]], v1000, z50, tool0;

        ENDIF
            
        IF DI10_14 = 1 THEN
            MoveJ [[390, -23,  300],[0.0121514,0.705603,0.708414,0.0112673],[-1,0,-4,0],[9E+09,9E+09,9E+09,9E+09,9E+09,9E+09]], v1000, z50, tool0;
    		MoveJ [[390, -23,  190],[0.0121514,0.705603,0.708414,0.0112673],[-1,0,-4,0],[9E+09,9E+09,9E+09,9E+09,9E+09,9E+09]], v1000, z50, tool0;

            MoveJ [[390, -23,  300],[0.0121514,0.705603,0.708414,0.0112673],[-1,0,-4,0],[9E+09,9E+09,9E+09,9E+09,9E+09,9E+09]], v1000, z50, tool0;
        ENDIF
            
        IF DI10_15 = 1 THEN
            MoveJ [[390, 58,   300],[0.0121549,0.705601,0.708415,0.0112726],[0,-1,-3,0],[9E+09,9E+09,9E+09,9E+09,9E+09,9E+09]], v1000, z50, tool0;
    		MoveJ [[390, 58,   190],[0.0121549,0.705601,0.708415,0.0112726],[0,-1,-3,0],[9E+09,9E+09,9E+09,9E+09,9E+09,9E+09]], v1000, z50, tool0;

            MoveJ [[390, 58,   300],[0.0121549,0.705601,0.708415,0.0112726],[0,-1,-3,0],[9E+09,9E+09,9E+09,9E+09,9E+09,9E+09]], v1000, z50, tool0;
        ENDIF
            
        IF DI10_16 = 1 THEN
            MoveJ [[472, -103, 300],[0.0121518,0.705602,0.708414,0.0112647],[-1,0,-4,0],[9E+09,9E+09,9E+09,9E+09,9E+09,9E+09]], v1000, z50, tool0;
    		MoveJ [[472, -103, 190],[0.0121518,0.705602,0.708414,0.0112647],[-1,0,-4,0],[9E+09,9E+09,9E+09,9E+09,9E+09,9E+09]], v1000, z50, tool0;

            MoveJ [[472,-103, 300],[0.0121518,0.705602,0.708414,0.0112647],[-1,0,-4,0],[9E+09,9E+09,9E+09,9E+09,9E+09,9E+09]], v1000, z50, tool0;
        ENDIF
            
        IF DI10_4 = 1 THEN
            MoveJ [[472, -23,  300],[0.0121585,0.705606,0.708411,0.0112768],[-1,0,-4,0],[9E+09,9E+09,9E+09,9E+09,9E+09,9E+09]], v1000, z50, tool0;
    		MoveJ [[472, -23,  190],[0.0121585,0.705606,0.708411,0.0112768],[-1,0,-4,0],[9E+09,9E+09,9E+09,9E+09,9E+09,9E+09]], v1000, z50, tool0;

            MoveJ [[472,-23, 300],[0.0121585,0.705606,0.708411,0.0112768],[-1,0,-4,0],[9E+09,9E+09,9E+09,9E+09,9E+09,9E+09]], v1000, z50, tool0;
        ENDIF
            
        IF DI10_5 = 1 THEN
            MoveJ [[472, 58, 300],[0.0121476,0.705604,0.708413,0.0112577],[0,-1,-3,0],[9E+09,9E+09,9E+09,9E+09,9E+09,9E+09]], v1000, z50, tool0;
            MoveJ [[472, 58, 190],[0.0121476,0.705604,0.708413,0.0112577],[0,-1,-3,0],[9E+09,9E+09,9E+09,9E+09,9E+09,9E+09]], v1000, z50, tool0;

            MoveJ [[472, 58, 300],[0.0121476,0.705604,0.708413,0.0112577],[0,-1,-3,0],[9E+09,9E+09,9E+09,9E+09,9E+09,9E+09]], v1000, z50, tool0;
        ENDIF
        
	ENDPROC
ENDMODULE