MODULE MainModule
	PROC main()
		MoveJ [[348.47,4.18,520.13],[0.0171746,0.712617,0.700884,0.0253711],[0,0,-3,0],[9E+09,9E+09,9E+09,9E+09,9E+09,9E+09]], v1000, z50, tool0;
		MoveJ [[349.13,6.22,192.60],[0.0167996,0.712567,0.700944,0.0253868],[0,0,-3,0],[9E+09,9E+09,9E+09,9E+09,9E+09,9E+09]], v1000, z50, tool0;
		MoveJ [[340.95,103.96,204.24],[0.016777,0.712593,0.700918,0.0253653],[0,-1,-3,0],[9E+09,9E+09,9E+09,9E+09,9E+09,9E+09]], v1000, z50, tool0;
		MoveJ [[341.53,210.09,215.57],[0.0167766,0.712598,0.700914,0.0253658],[0,-1,-3,0],[9E+09,9E+09,9E+09,9E+09,9E+09,9E+09]], v1000, z50, tool0;
		MoveJ [[439.45,5.81,207.50],[0.0167784,0.712595,0.700916,0.0253669],[0,0,-3,0],[9E+09,9E+09,9E+09,9E+09,9E+09,9E+09]], v1000, z50, tool0;
		MoveJ [[439.45,106.42,207.50],[0.0167763,0.712597,0.700915,0.0253564],[0,-1,-3,0],[9E+09,9E+09,9E+09,9E+09,9E+09,9E+09]], v1000, z50, tool0;
		MoveJ [[439.45,219.78,207.50],[0.0167731,0.712591,0.70092,0.0253814],[0,-1,-3,0],[9E+09,9E+09,9E+09,9E+09,9E+09,9E+09]], v1000, z50, tool0;
		MoveJ [[531.12,8.88,207.49],[0.0167593,0.712632,0.700879,0.0253528],[0,0,-3,0],[9E+09,9E+09,9E+09,9E+09,9E+09,9E+09]], v1000, z50, tool0;
		MoveJ [[531.12,107.86,207.49],[0.0167613,0.712629,0.700882,0.0253533],[0,-1,-3,0],[9E+09,9E+09,9E+09,9E+09,9E+09,9E+09]], v1000, z50, tool0;
		MoveJ [[531.12,220.13,207.49],[0.0167596,0.712632,0.700879,0.0253536],[0,-1,-3,0],[9E+09,9E+09,9E+09,9E+09,9E+09,9E+09]], v1000, z50, tool0;
	ENDPROC
ENDMODULE